resources/icon.svg

<?xml version="1.0" encoding="UTF-8" standalone="no"?>
<svg
   xmlns:dc="http://purl.org/dc/elements/1.1/"
   xmlns:cc="http://creativecommons.org/ns#"
   xmlns:rdf="http://www.w3.org/1999/02/22-rdf-syntax-ns#"
   xmlns:svg="http://www.w3.org/2000/svg"
   xmlns="http://www.w3.org/2000/svg"
   xmlns:sodipodi="http://sodipodi.sourceforge.net/DTD/sodipodi-0.dtd"
   xmlns:inkscape="http://www.inkscape.org/namespaces/inkscape"
   width="28"
   height="28"
   viewBox="0 0 7.408 7.408"
   version="1.1"
   id="svg4"
   sodipodi:docname="testicon.svg"
   inkscape:version="0.92.5 (2060ec1f9f, 2020-04-08)">
  <metadata
     id="metadata10">
    <rdf:RDF>
      <cc:Work
         rdf:about="">
        <dc:format>image/svg+xml</dc:format>
        <dc:type
           rdf:resource="http://purl.org/dc/dcmitype/StillImage" />
      </cc:Work>
    </rdf:RDF>
  </metadata>
  <defs
     id="defs8" />
  <sodipodi:namedview
     pagecolor="#ffffff"
     bordercolor="#666666"
     borderopacity="1"
     objecttolerance="10"
     gridtolerance="10"
     guidetolerance="10"
     inkscape:pageopacity="0"
     inkscape:pageshadow="2"
     inkscape:window-width="3840"
     inkscape:window-height="2096"
     id="namedview6"
     showgrid="false"
     inkscape:zoom="32"
     inkscape:cx="20.90625"
     inkscape:cy="13.570148"
     inkscape:window-x="0"
     inkscape:window-y="27"
     inkscape:window-maximized="1"
     inkscape:current-layer="svg4"
     inkscape:snap-global="false" />
  <path
     id="rect817"
     style="fill:#ffffff;fill-opacity:1;stroke:none;stroke-width:0.24154554;stroke-linecap:round;stroke-linejoin:round;stroke-miterlimit:4;stroke-dasharray:none;paint-order:stroke fill markers"
     d="m 1.8576842,0.36573005 c -0.2612739,0 -0.4717847,0.21662142 -0.4717847,0.48547955 v 0.459956 l 0.023253,-0.039881 c 0.107,-0.1286285 0.1867333,-0.2220507 0.3467333,-0.2632118 a 1.886,1.9407467 0 0 1 0.3622355,-0.047325 c 0.127,-0.003087 0.2996997,0.0390284 0.3456997,0.0771025 a 1.078,1.1092921 0 0 1 0.330198,0.4466628 c 0.096,0.220212 0.075795,0.6995633 -0.037205,0.8045241 -0.077,0.069974 -0.4257411,-0.027709 -0.5167411,-0.077102 -0.146,-0.079235 -0.2958751,-0.2304299 -0.520875,-0.3312746 -0.071,-0.032929 -0.233298,-0.067023 -0.3332981,-0.1153879 v 2.9399959 l 1.2102077,-0.118578 a 0.17,0.17493475 0 1 1 0.032038,0.3482901 L 1.3858995,5.055154 V 5.3162387 L 2.5790547,5.077487 a 0.17030618,0.17524982 0 0 1 0.065109,0.3440365 L 1.3858995,5.6725052 v 0.3748774 c 0.021628,-0.036423 0.041792,-0.069888 0.072344,-0.1074116 0.162,-0.1955154 0.4886339,-0.2117411 0.698634,-0.2467278 0.1119999,-0.018523 0.233183,-0.0187 0.345183,-0.037222 0.487,-0.077177 0.4469743,-0.089601 0.6319743,-0.2882036 0.057,-0.062771 0.1018259,-0.1488576 0.179826,-0.1797284 a 1.03,1.0598988 0 0 1 0.3400156,-0.060087 c -0.003,-0.027784 -0.00299,-0.055562 -0.014986,-0.07923 -0.021,-0.04219 -0.054745,-0.076748 -0.084745,-0.1137927 C 3.314145,4.62833 3.2089977,4.4759514 2.9939977,4.3607 2.8609977,4.2907263 2.5901362,4.285612 2.5661362,4.2187253 c -0.062,-0.1790508 -0.015902,-0.3018416 0.2190983,-0.3121319 0.1469998,-0.0072 0.2927131,0.010551 0.4387131,0.023928 a 9.1590002,9.4248669 0 0 0 1.347144,-0.00319 c 0.162,-0.01029 0.3211529,-0.051579 0.4831529,-0.051579 a 0.48599999,0.50010756 0 0 1 0.2537198,0.048389 c 0.033,0.020581 0.091977,0.1935927 -0.047023,0.2265216 -0.3730002,0.086438 -0.861892,0.3847394 -1.215892,0.8539761 -0.016,0.020581 -0.026105,0.098805 -0.034105,0.1276178 a 0.93000001,0.95699597 0 0 1 0.5601474,0.2781004 c 0.074,0.071003 0.1340838,0.1880492 0.2340835,0.1983395 0.5690001,0.079235 0.8928284,0.131874 1.3528284,0.3860438 0.139,0.1584704 0.099866,0.2827129 -0.00413,0.3887028 -0.092,0.09467 -0.00698,0.280153 -0.09198,0.35733 C 5.9538895,6.8375013 5.7681038,6.7342944 5.6981037,6.6519721 5.6081039,6.5449531 5.628019,6.4907328 5.572019,6.3600462 5.5000191,6.1933437 5.4070437,6.0243017 5.0480435,5.9543279 4.5370436,5.8545121 4.2220994,5.8411358 3.8150994,5.8431941 c -0.255,0.00206 -0.4829297,1.124e-4 -0.7849297,0.066999 -0.3680001,0.081293 -0.613423,0.042085 -0.738423,0.1079433 -0.14,0.07409 -0.2118773,0.2050592 -0.3048773,0.2945845 -0.199,0.1934572 -0.2118046,0.353602 -0.3798046,0.4328372 C 1.5667514,6.7649175 1.4722869,6.738208 1.4091529,6.7003604 1.4685913,6.8983182 1.645285,7.04227 1.8576842,7.04227 h 3.9225814 c 0.2612741,0 0.4717846,-0.2166214 0.4717846,-0.4854795 V 5.4114202 H 5.0299577 a 0.17000778,0.17494275 0 0 1 0,-0.3498855 h 1.2220925 v -0.28714 L 5.0542445,4.8998855 A 0.17,0.17493475 0 0 1 4.8682178,4.7435536 0.17,0.17493475 0 0 1 5.0201394,4.5521268 L 6.2520502,4.4234455 V 1.8790649 A 0.37,0.38074033 0 0 1 6.076875,2.0359285 C 5.7838751,2.1841085 5.4139463,2.3899888 5.1839465,2.435266 5.0349464,2.4651078 4.8400457,2.2800482 4.8320458,2.1545068 c -0.012,-0.1975734 -0.03201,-0.3574115 0.04599,-0.5663042 0.055,-0.149209 0.2288572,-0.4354166 0.3968572,-0.4806939 0.098,-0.025726 0.1942076,-0.043174 0.2842076,-0.046261 0.2750001,-0.011319 0.4900601,0.118437 0.6500602,0.4477259 a 0.80600001,0.82939651 0 0 1 0.04289,0.1143243 V 0.8512096 c 0,-0.26885813 -0.2105105,-0.48547955 -0.4717846,-0.48547955 z M 1.3858995,5.3214061 0.63507473,5.4666103 C 0.39658872,5.4979311 0.46605136,5.8592489 0.69915062,5.7999084 L 1.3858995,5.667106 Z M 6.2520502,5.0652037 v 0.3400156 h 0.5224254 c 0.2266769,0 0.2266769,-0.3400156 0,-0.3400156 z M 1.3858998,4.7094025 0.61802258,4.7812294 c -0.22373953,0.023211 -0.19208829,0.3581009 0.0320379,0.3389822 l 0.73583928,-0.06976 z m 5.38651,-0.3324747 c -0.00692,9.58e-5 -0.013819,6.085e-4 -0.020671,0.00156 L 6.2520502,4.4286129 V 4.7701786 L 6.7853273,4.7164375 C 7.0027301,4.6997087 6.990454,4.3770982 6.7724082,4.3769387 Z" />
</svg>

<svg xmlns="http://www.w3.org/2000/svg" viewBox="0 0 7.408 7.408" height="28" width="28">
   <path d="M1.858.366a.478.478 0 00-.472.485v.46l.023-.04c.107-.128.187-.222.347-.263a1.886 1.94 0 01.362-.047c.127-.003.3.039.346.077a1.078 1.11 0 01.33.447c.096.22.076.7-.037.804-.077.07-.426-.028-.517-.077-.146-.08-.296-.23-.52-.331-.072-.033-.234-.067-.334-.116v2.94l1.21-.118a.17.175 0 11.032.348l-1.242.12v.261l1.193-.239a.17.175 0 01.065.345l-1.258.25v.375a.824.824 0 01.072-.107c.162-.196.489-.212.699-.247.112-.018.233-.018.345-.037.487-.077.447-.09.632-.288.057-.063.102-.149.18-.18a1.03 1.06 0 01.34-.06c-.003-.028-.003-.056-.015-.08-.021-.041-.055-.076-.085-.113-.24-.307-.345-.459-.56-.574-.133-.07-.404-.075-.428-.142-.062-.18-.016-.302.22-.312.146-.008.292.01.438.024a9.159 9.425 0 001.347-.004c.162-.01.321-.051.483-.051a.486.5 0 01.254.048c.033.02.092.194-.047.227-.373.086-.862.384-1.216.854-.016.02-.026.098-.034.127a.93.957 0 01.56.278c.074.071.134.188.234.199.57.079.893.132 1.353.386.139.158.1.282-.004.388-.092.095-.007.28-.092.358-.108.097-.294-.007-.364-.089-.09-.107-.07-.161-.126-.292-.072-.167-.165-.336-.524-.406a5.536 5.536 0 00-1.233-.11c-.255.001-.483 0-.785.066-.368.081-.613.042-.738.108-.14.074-.212.205-.305.295-.2.193-.212.353-.38.433-.04.019-.135-.008-.198-.046a.47.47 0 00.449.342H5.78a.478.478 0 00.472-.485V5.41H5.03a.17.175 0 010-.35h1.222v-.287L5.054 4.9a.17.175 0 01-.186-.156.17.175 0 01.152-.192l1.232-.129V1.88a.37.38 0 01-.175.157c-.293.148-.663.354-.893.4-.15.03-.344-.156-.352-.281-.012-.198-.032-.358.046-.567.055-.149.229-.435.397-.48.098-.026.194-.044.284-.047.275-.011.49.119.65.448a.806.83 0 01.043.114V.851A.478.478 0 005.78.366zM1.386 5.32l-.75.146c-.24.03-.17.392.063.333l.687-.133zm4.866-.256v.34h.522c.227 0 .227-.34 0-.34zM1.386 4.71l-.768.072c-.224.023-.192.358.032.34l.736-.07zm5.386-.332l-.02.001-.5.05v.342l.533-.054c.218-.016.205-.339-.013-.34z" fill="#fff"/>
</svg>
